img/part5/3_仙品貢丸日文標.svg

<svg width="25" height="111" viewBox="0 0 25 111" fill="none" xmlns="http://www.w3.org/2000/svg"><path d="M6.636 12.8046C6.996 12.8766 7.392 12.9126 7.698 13.0746C7.95 13.2186 8.058 13.3806 8.094 13.8846C8.166 14.7306 8.202 16.0806 8.202 17.4126C8.238 19.2666 8.22 21.1026 8.274 22.2726C8.382 24.6846 10.092 25.1886 13.134 25.1886C14.826 25.1886 16.194 25.0806 16.986 24.8826C17.724 24.6846 18.066 24.3606 18.066 23.9106C18.066 23.1726 17.238 22.8126 16.446 22.8126C16.068 22.8126 14.358 23.3886 12.108 23.3886C10.146 23.3886 9.822 23.0826 9.804 21.5526C9.768 20.6886 9.858 18.6186 9.948 16.9626C10.002 16.0446 10.038 15.2346 10.11 14.8206C10.236 14.1186 10.596 13.9746 10.596 13.5786C10.596 12.9846 9.282 11.9946 8.166 11.9946C7.662 11.9946 7.05 12.2826 6.6 12.5346L6.636 12.8046ZM12.918 11.2386C13.332 11.3106 13.638 11.3466 13.962 11.4546C14.322 11.5626 14.502 11.7426 14.52 12.0666C14.592 13.0386 14.538 14.8926 14.52 15.8106C14.502 16.5846 14.412 18.2226 14.268 18.7986C14.142 19.3206 13.926 19.3566 13.548 19.3566C13.206 19.3566 12.234 19.1586 11.334 18.9246L11.244 19.1946C12 19.6266 12.792 20.0946 13.044 20.7426C13.242 21.2286 13.476 21.3906 13.926 21.3906C14.862 21.3906 15.492 20.7066 15.708 19.8246C15.96 18.9066 16.068 16.8906 16.122 15.7026C16.176 14.7486 16.266 13.8666 16.32 13.2186C16.392 12.5526 16.788 12.3006 16.788 11.9406C16.788 11.3286 15.492 10.3746 14.358 10.3746C13.926 10.3746 13.386 10.6626 12.9 10.9866L12.918 11.2386ZM9.084 17.8806C10.938 17.1426 14.214 16.4406 16.338 16.2426C17.94 16.1166 18.498 16.3686 19.344 16.3686C20.028 16.3686 20.424 16.2066 20.424 15.6126C20.424 14.7126 19.29 14.2626 18.372 14.2626C18.102 14.2626 17.31 14.4066 15.294 14.8746C13.692 15.2526 10.578 15.9726 9.048 16.3866C7.68 16.7466 5.43 17.3046 4.962 17.3046C4.512 17.3046 4.116 17.0166 3.738 16.5306L3.486 16.6206C3.468 17.1246 3.468 17.6106 3.63 17.9346C3.972 18.6726 4.656 19.3746 5.268 19.3746C5.862 19.3746 6.834 18.7086 9.084 17.8806ZM9.786 36.9686C10.128 37.1126 10.614 37.3286 10.884 37.5806C11.082 37.7606 11.136 38.0126 10.956 38.3546C10.434 39.3986 7.698 43.9346 6.51 46.0046C5.52 47.6966 4.548 49.0106 4.548 49.9466C4.548 50.6126 4.944 51.2966 5.61 51.2966C6.294 51.2966 6.618 50.8106 6.816 50.2526C7.104 49.4066 7.41 48.3086 7.86 47.2826C8.508 45.7886 9.768 44.2046 11.226 44.2046C12.198 44.2046 12.468 44.8166 12.468 45.5726C12.468 46.7246 12.27 47.7146 12.288 48.9386C12.306 50.4326 13.242 51.3866 14.952 51.3866C17.454 51.3866 19.632 49.6226 20.028 45.3926L19.74 45.3206C18.984 47.2646 17.4 49.3886 15.474 49.3886C14.754 49.3886 14.25 49.1006 14.25 48.2006C14.25 47.1926 14.304 46.4006 14.232 45.5366C14.124 44.1686 13.296 43.3946 11.766 43.3946C11.19 43.3946 10.38 43.5746 9.498 44.0246C9.39 44.0786 9.336 44.0246 9.408 43.9166C10.146 42.6926 11.712 40.6586 12.63 39.7406C13.134 39.2186 13.692 39.0026 13.692 38.5886C13.692 37.8686 12.756 36.7526 11.334 36.5546C10.938 36.4826 10.254 36.5546 9.822 36.7166L9.786 36.9686ZM16.896 63.4006C16.896 64.5166 17.796 65.4166 18.912 65.4166C20.01 65.4166 20.91 64.5166 20.91 63.4006C20.91 62.3026 20.01 61.4026 18.912 61.4026C17.796 61.4026 16.896 62.3026 16.896 63.4006ZM17.634 63.4006C17.634 62.6986 18.192 62.1406 18.912 62.1406C19.614 62.1406 20.172 62.6986 20.172 63.4006C20.172 64.1206 19.614 64.6786 18.912 64.6786C18.192 64.6786 17.634 64.1206 17.634 63.4006ZM5.358 64.0666C5.7 65.1466 6.114 65.7586 6.816 65.9926C7.23 66.1006 7.95 66.1186 8.346 66.0826C6.87 68.0086 5.394 70.2586 5.394 72.9766C5.394 76.2886 7.572 77.6746 10.038 77.6746C13.818 77.6746 15.15 75.2086 15.492 73.2826C15.78 71.6806 15.708 70.1326 15.708 69.4486C15.708 68.8546 15.888 68.8186 16.068 69.3766C16.464 70.6006 17.004 71.8246 17.472 72.4726C17.814 72.9946 18.264 73.4086 18.75 73.4086C19.254 73.4086 19.488 72.9406 19.488 72.3466C19.488 71.4466 19.128 70.9786 18.696 70.6006C17.886 69.8626 16.968 68.6746 16.716 67.3606C16.554 66.4786 16.572 65.5786 16.572 64.5706C16.572 63.8866 15.96 63.2566 15.258 63.2386C14.772 63.2206 14.376 63.6346 14.376 64.2826C14.376 64.8226 14.592 65.7586 14.7 66.2446C14.862 67.0726 14.898 67.7746 14.898 68.4586C14.898 72.9766 13.494 75.5866 10.11 75.5866C8.238 75.5866 6.798 74.5066 6.798 72.5626C6.798 69.8086 8.346 67.5766 9.552 66.4246C10.146 65.8666 10.866 65.6866 11.388 65.4526C11.892 65.2186 12 65.0026 12 64.6786C12 64.2466 11.082 63.4366 10.47 63.4366C10.164 63.4366 10.056 63.6166 9.642 63.8506C8.994 64.2466 7.716 64.4446 7.014 64.4446C6.474 64.4446 6.006 64.2286 5.538 63.8866L5.358 64.0666ZM9.786 88.9686C10.128 89.1126 10.614 89.3286 10.884 89.5806C11.082 89.7606 11.136 90.0126 10.956 90.3546C10.434 91.3986 7.698 95.9346 6.51 98.0046C5.52 99.6966 4.548 101.011 4.548 101.947C4.548 102.613 4.944 103.297 5.61 103.297C6.294 103.297 6.618 102.811 6.816 102.253C7.104 101.407 7.41 100.309 7.86 99.2826C8.508 97.7886 9.768 96.2046 11.226 96.2046C12.198 96.2046 12.468 96.8166 12.468 97.5726C12.468 98.7246 12.27 99.7146 12.288 100.939C12.306 102.433 13.242 103.387 14.952 103.387C17.454 103.387 19.632 101.623 20.028 97.3926L19.74 97.3206C18.984 99.2646 17.4 101.389 15.474 101.389C14.754 101.389 14.25 101.101 14.25 100.201C14.25 99.1926 14.304 98.4006 14.232 97.5366C14.124 96.1686 13.296 95.3946 11.766 95.3946C11.19 95.3946 10.38 95.5746 9.498 96.0246C9.39 96.0786 9.336 96.0246 9.408 95.9166C10.146 94.6926 11.712 92.6586 12.63 91.7406C13.134 91.2186 13.692 91.0026 13.692 90.5886C13.692 89.8686 12.756 88.7526 11.334 88.5546C10.938 88.4826 10.254 88.5546 9.822 88.7166L9.786 88.9686Z" fill="white"></path><rect x="0.5" y="1.16663" width="24" height="109" stroke="#F1F1F1"></rect></svg>

<svg width="25" height="111" fill="none" xmlns="http://www.w3.org/2000/svg"><path d="M6.636 12.805c.36.072.756.108 1.062.27.252.144.36.306.396.81.072.846.108 2.196.108 3.528.036 1.854.018 3.69.072 4.86.108 2.412 1.818 2.916 4.86 2.916 1.692 0 3.06-.108 3.852-.306.738-.198 1.08-.522 1.08-.972 0-.738-.828-1.098-1.62-1.098-.378 0-2.088.576-4.338.576-1.962 0-2.286-.306-2.304-1.836-.036-.864.054-2.934.144-4.59.054-.918.09-1.728.162-2.142.126-.702.486-.846.486-1.242 0-.594-1.314-1.584-2.43-1.584-.504 0-1.116.288-1.566.54l.036.27Zm6.282-1.566c.414.072.72.108 1.044.216.36.108.54.288.558.612.072.972.018 2.826 0 3.744-.018.774-.108 2.412-.252 2.988-.126.522-.342.558-.72.558-.342 0-1.314-.198-2.214-.432l-.09.27c.756.432 1.548.9 1.8 1.548.198.486.432.648.882.648.936 0 1.566-.684 1.782-1.566.252-.918.36-2.934.414-4.122.054-.954.144-1.836.198-2.484.072-.666.468-.918.468-1.278 0-.612-1.296-1.566-2.43-1.566-.432 0-.972.288-1.458.612l.018.252ZM9.084 17.88c1.854-.738 5.13-1.44 7.254-1.638 1.602-.126 2.16.126 3.006.126.684 0 1.08-.162 1.08-.756 0-.9-1.134-1.35-2.052-1.35-.27 0-1.062.144-3.078.612-1.602.378-4.716 1.098-6.246 1.512-1.368.36-3.618.918-4.086.918-.45 0-.846-.288-1.224-.774l-.252.09c-.018.504-.018.99.144 1.314.342.738 1.026 1.44 1.638 1.44.594 0 1.566-.666 3.816-1.494Zm.702 19.088c.342.144.828.36 1.098.612.198.18.252.432.072.774-.522 1.044-3.258 5.58-4.446 7.65-.99 1.692-1.962 3.006-1.962 3.942 0 .666.396 1.35 1.062 1.35.684 0 1.008-.486 1.206-1.044.288-.846.594-1.944 1.044-2.97.648-1.494 1.908-3.078 3.366-3.078.972 0 1.242.612 1.242 1.368 0 1.152-.198 2.142-.18 3.366.018 1.494.954 2.448 2.664 2.448 2.502 0 4.68-1.764 5.076-5.994l-.288-.072c-.756 1.944-2.34 4.068-4.266 4.068-.72 0-1.224-.288-1.224-1.188 0-1.008.054-1.8-.018-2.664-.108-1.368-.936-2.142-2.466-2.142-.576 0-1.386.18-2.268.63-.108.054-.162 0-.09-.108.738-1.224 2.304-3.258 3.222-4.176.504-.522 1.062-.738 1.062-1.152 0-.72-.936-1.836-2.358-2.034-.396-.072-1.08 0-1.512.162l-.036.252Zm7.11 26.432c0 1.116.9 2.016 2.016 2.016 1.098 0 1.998-.9 1.998-2.016 0-1.098-.9-1.998-1.998-1.998-1.116 0-2.016.9-2.016 1.998Zm.738 0c0-.702.558-1.26 1.278-1.26.702 0 1.26.558 1.26 1.26 0 .72-.558 1.278-1.26 1.278a1.26 1.26 0 0 1-1.278-1.278Zm-12.276.666c.342 1.08.756 1.692 1.458 1.926.414.108 1.134.126 1.53.09-1.476 1.926-2.952 4.176-2.952 6.894 0 3.312 2.178 4.698 4.644 4.698 3.78 0 5.112-2.466 5.454-4.392.288-1.602.216-3.15.216-3.834 0-.594.18-.63.36-.072.396 1.224.936 2.448 1.404 3.096.342.522.792.936 1.278.936.504 0 .738-.468.738-1.062 0-.9-.36-1.368-.792-1.746-.81-.738-1.728-1.926-1.98-3.24-.162-.882-.144-1.782-.144-2.79 0-.684-.612-1.314-1.314-1.332-.486-.018-.882.396-.882 1.044 0 .54.216 1.476.324 1.962.162.828.198 1.53.198 2.214 0 4.518-1.404 7.128-4.788 7.128-1.872 0-3.312-1.08-3.312-3.024 0-2.754 1.548-4.986 2.754-6.138.594-.558 1.314-.738 1.836-.972.504-.234.612-.45.612-.774 0-.432-.918-1.242-1.53-1.242-.306 0-.414.18-.828.414-.648.396-1.926.594-2.628.594-.54 0-1.008-.216-1.476-.558l-.18.18Zm4.428 24.902c.342.144.828.36 1.098.612.198.18.252.432.072.774-.522 1.044-3.258 5.58-4.446 7.65-.99 1.692-1.962 3.006-1.962 3.942 0 .666.396 1.35 1.062 1.35.684 0 1.008-.486 1.206-1.044.288-.846.594-1.944 1.044-2.97.648-1.494 1.908-3.078 3.366-3.078.972 0 1.242.612 1.242 1.368 0 1.152-.198 2.142-.18 3.366.018 1.494.954 2.448 2.664 2.448 2.502 0 4.68-1.764 5.076-5.994l-.288-.072c-.756 1.944-2.34 4.068-4.266 4.068-.72 0-1.224-.288-1.224-1.188 0-1.008.054-1.8-.018-2.664-.108-1.368-.936-2.142-2.466-2.142-.576 0-1.386.18-2.268.63-.108.054-.162 0-.09-.108.738-1.224 2.304-3.258 3.222-4.176.504-.522 1.062-.738 1.062-1.152 0-.72-.936-1.836-2.358-2.034-.396-.072-1.08 0-1.512.162l-.036.252Z" fill="#fff"/><path stroke="#F1F1F1" d="M.5 1.167h24v109H.5z"/></svg>
